!!!COM: Bach, Johann Sebastian
!!!CDT: 1685/3//-1750/7/28/
!!!OTL@@DE: Christus ist erstanden, hat ueberwunden
!!!OTL@EN:  Christ is risen, has conquered
!!!AGN: 4-Part Chorale
!!!SCT: BH 200
!!!SCT: BWV 284
**harm	**root	**kern	**kern	**kern	**kern
*	*Iorgan	*Iorgan	*Iorgan	*Iorgan	*Iorgan
!	!	!bass	!tenor	!alto	!soprno
*	*	*clefF4	*clefF4	*clefG2	*clefG2
*M4/4	*M4/4	*M4/4	*M4/4	*M4/4	*M4/4
*met(c)	*met(c)	*met(c)	*met(c)	*met(c)	*met(c)
*MM60	*MM60	*MM60	*MM60	*MM60	*MM60
*k[b-e-a-d-g-]	*k[b-e-a-d-g-]	*k[b-e-a-d-g-]	*k[b-e-a-d-g-]	*k[b-e-a-d-g-]	*k[b-e-a-d-g-]
*D-:	*D-:	*D-:	*D-:	*D-:	*D-:
=1-	=1-	=1-	=1-	=1-	=1-
I	4CC	4d-	4f	4a-	4dd-
Vb	4GG	4c	4e-	[4a-	4a-
vii/V	4FF#	4B-	4d-	8a-]	4b-
.	.	.	.	8g	.
V	4GG	8A-	4e-	4a-	4cc
.	.	8G-	.	.	.
=2	=2	=2	=2	=2	=2
Ib	4CC	4F	8d-	4.a-	2dd-
.	.	.	8c-	.	.
IV	4FF	4G-	4B-	.	.
.	.	.	.	[8g-	.
I;	4CC;	4D-;	4A-;	8g-]	4dd-;
.	.	.	.	8f;	.
V/IV	4CC	8d-	4d-	[4f	4a-
.	.	8c-	.	.	.
=3	=3	=3	=3	=3	=3
vi	8AA	4B-	4d-	8f]	4dd-
viiob/V	8FF#	.	.	8g	.
v	4GG	4A-	4e-	4a-	4cc-
iio7b/v	4AA	4D-	4f-	4a-	2b-
V/V	4DD	4E-	8e-	4g	.
.	.	.	8d-	.	.
=4	=4	=4	=4	=4	=4
v;	2GG;	2AA-;	2c-;	2e-;	2a-;
v	4GG	4A-	4c-	8e-	4a-
.	.	.	.	4f-	.
viioD7/v	8FF#	4G	4d-	.	4b-
V7b/v	8DD	.	.	[8e-	.
=5	=5	=5	=5	=5	=5
v	4GG	4A-	8c-	8e-]	4cc-
.	.	.	8A-	8cc-	.
iv/v	4CC	4D-	4f-	8b-	4dd-
.	.	.	.	8a-	.
Vc	4GG	4E-	[4e-	8g	4cc-
.	.	.	.	4a-	.
V/v	4DD	4EE-	8.e-]	.	4b-
.	.	.	.	8g	.
.	.	.	16d-	.	.
!!linebreak: 3
=6	=6	=6	=6	=6	=6
v;	2GG;	2AA-;	2c-;	2e-;	2a-;
I	4CC	8D-	[4d-	8f	4a-
.	.	8E-	.	8g-	.
Ib	4CC	8F	8d-]	4a-	4dd-
.	.	8G-	8e-	.	.
=7	=7	=7	=7	=7	=7
Ic	4CC	4A-	8f	4a-	4dd-
.	.	.	16e-	.	.
.	.	.	16d-	.	.
V	4GG	4AA-	8e-	4a-	4cc
.	.	.	[8g-	.	.
I;	2CC;	2D-;	8g-]	2a-;	2dd-;
.	.	.	16f	.	.
.	.	.	16e-	.	.
.	.	.	4f;	.	.
=8	=8	=8	=8	=8	=8
IV	4FF	8G-	4g-	4b-	4dd-
.	.	8A-	.	.	.
IV	4FF	8G-	4g-	8b-	4dd-
.	.	8F	.	8a-	.
ii	4DD	8E-	8g-	8g-	4ee-
.	.	8F	8f	8a-	.
iib	4DD	8G-	8e-	[4b-	4ee-
.	.	8A-	8f	.	.
=9	=9	=9	=9	=9	=9
IVb	4FF	8B-	[4g-	4b-]	4dd-
.	.	8G-	.	.	.
ii7	8DD	8A-	8g-]	8cc-	4cc-
V7/IV	8CC	8D-	8f	8a-	.
IV;	2FF;	2G-;	2d-;	2g-;	2b-;
=10	=10	=10	=10	=10	=10
V/IV	4CC	8d-	4d-	4f	4a-
.	.	8c-	.	.	.
vi	8AA	4B-	4d-	8f	4b-
viiob/v	8FF#	.	.	8g	.
v	4GG	8A-	4e-	[4a-	4cc-
.	.	8C-	.	.	.
iio7b/v	8AA	8D-	8f-	8a-]	4b-
V/v	8DD	8E-	16e-	8g	.
.	.	.	16d-	.	.
!!linebreak: 3
=11	=11	=11	=11	=11	=11
-III;	2EE-;	2F-;	2c-;	2a-;	2a-;
v	4GG	4A-	8c-	8e-	4cc-
.	.	.	8e-	[8cc-	.
V/-VII	4FF	4G-	4g-	8cc-]	4dd-
.	.	.	.	8b-	.
=12	=12	=12	=12	=12	=12
-VII	4BB-	8c-	4g-	2cc-	4ee-
.	.	8B-	.	.	.
IVb/-VII	8EE-	8A-	8f-	.	8ff-
Ic/-VII	8BB-	8G-	8g-	.	8ee-
ii7b/-VII	8CC	8F-	8a-	4cc-	2dd-
ii7/-VII	8CC	8D-	8f-	.	.
V/-VII	4FF	4G-	8d-	4b-	.
.	.	.	8g-	.	.
=13	=13	=13	=13	=13	=13
I/-VII;	2BB-;	2C-;	2g-;	2cc-;	2ee-;
I/-VII	4BB-	4c-y	4g-	4.cc-	4ee-
V/-VII	4FF	4G-	4g-	.	4dd-
.	.	.	.	8b-	.
=14	=14	=14	=14	=14	=14
I/-VII	4BB-	8c-	4g-	4cc-	4ee-
.	.	8B-	.	.	.
iio7d/v	8AA	8A-	8f-	4b-	4dd-
V7b/v	8DD	8G	8e-	.	.
v	4GG	8A-	4e-	4a-	4cc-
.	.	8B-	.	.	.
V7d/IV	4CC	8c-	4d-	4f	4a-
.	.	8d-	.	.	.
=15	=15	=15	=15	=15	=15
IV	4FF	4G-	4d-	8g-	4b-
.	.	.	.	8f	.
V7	4GG	4A-	4A-	8e-	4cc
.	.	.	.	8g-	.
I;	2CC;	2D-;	2A-;	2f;	2dd-;
==	==	==	==	==	==
*-	*-	*-	*-	*-	*-
!!!YOR1: Ludwig Erk, Peters Editions of 1850, 1865; rev. in light of Friedrich
!!!YOR2: Smend, Peters Edition of 1932 & Albert Riemenschneider, 1941.
!!!RDT: 1987 September
!!!YER: 1995 March 1
!!chor2scor: -l 3 -s 0.6 -o %b.pmx
!!!YEC: Copyright 1994, David Huron
!!!YEC: Changes/Additions 2001 by Craig Stuart Sapp
!!!YEN: United States of America
!!!SMA: J.S. Bach Chorale Harmonizations, edited by Ludwig Erk, C.F. Peters
!!!PDT: 1850, 1865
